src/svgs/water-heater.svg

<svg xmlns="http://www.w3.org/2000/svg" viewBox="0 0 24 24" width="512" height="512" aria-labelledby="ndwater-heater-desc ndwater-heater-title"><title id="ndwater-heater-title">Water Heater Icon</title><desc id="ndwater-heater-desc">A picture depicting a water heater.</desc><path d="M12 13l-1-2h2zm5-10h-4V1h-2v2H7a2.978 2.978 0 00-2 .779V1H4v17a2.99 2.99 0 002 2.816V22H5v1h3v-1H7v-1h4v1h-1v1h4v-1h-1v-1h4v1h-1v1h3v-1h-1v-1.184A2.99 2.99 0 0020 18V6a3 3 0 00-3-3zm-5 11a2 2 0 112-2 2 2 0 01-2 2z"/></svg>

<svg xmlns="http://www.w3.org/2000/svg" viewBox="0 0 24 24"><path d="M12,13l-1-2h2ZM17,3H13V1H11V3H7a2.978,2.978,0,0,0-2,.779V1H4V18a2.99,2.99,0,0,0,2,2.816V22H5v1H8V22H7V21h4v1H10v1h4V22H13V21h4v1H16v1h3V22H18V20.816A2.99,2.99,0,0,0,20,18V6A3,3,0,0,0,17,3ZM12,14a2,2,0,1,1,2-2A2,2,0,0,1,12,14Z"/></svg>
